X:1
T:No More Shall I Work In a Factory
M:4/4
L:1/8
K:E
 E| G B/2B/2 B c/2c/2 B2 GE| GB Bc B2- BE| G B/2B/2 B c/2c/2 B2 EE|\
 GF ED E2- EE| B/2 B3/2 BB G2 EE| B/2 B3/2 BB G2- GE| B/2 B3/2 BG F2 EE|\
 F3/2 E/2 FG E3||
